X:1
T:The First of May -- Reel
R:reel
B:Ryan's Mammoth Collection
N: 372
Z: Contributed by Ray Davies,  ray:davies99.freeserve.co.uk
M:C|
L:1/8
K:AMin
v"A MINOR"AF|\
EAAB cBcA | dcde f2ef | gfed cd"4"ec | dcAF GFGE |
EAAB cBcA | dBde f2af | gfeg dfec | A2A2A2:|
|:veg|\
a2af g2ge | f2fd "4"e2ed | cdef geed | cAAF GFAE |
EAAB cBcA | dcde f2af | gfed cAdc | A2A2A2  :|
